X:1
T:Title
%%score ( 1 2 ) ( 3 4 )
L:1/8
Q:1/4=90
M:4/4
K:G
V:1 treble nm="Midi_20"
V:2 treble 
V:3 bass nm="Midi_20"
V:4 bass 
V:1
"^Bewdley (77. 77)""^F. A. Gore Ouseley\n(1825-89)" D2 D2 E2 A2 | F2 G2 A4 | B2 d2 A2 D2 | %3
 E2 F2 D4 || E2 E2 A2 A2 | B2 B2 c4 | d3 c B2 G2 | E2 F2 G4 |] %8
V:2
 B,2 B,2 C2 C2 | D2 D2 D4 | D2 D2 D2 D2 | D2 ^C2 D4 || B,2 B,2 E2 C2 | =F2 E2 E4 | D3 D D2 D2 | %7
 D2 C2 B,4 |] %8
V:3
 G,2 G,2 G,2 A,2 | A,2 G,2 F,4 | G,2 G,2 F,2 F,2 | B,2 G,2 F,4 || ^G,2 G,2 A,2 A,2 | A,2 ^G,2 A,4 | %6
 A,3 A, G,2 G,2 | G,2 D,2 D,4 |] %8
V:4
 G,,2 G,,2 C,2 A,,2 | D,2 B,,2 D,4 | G,,2 B,,2 D,2 B,,2 | G,,2 A,,2 D,4 || D,2 D,2 C,2 =F,2 | %5
 D,2 E,2 A,,4 | F,,3 F,, G,,2 B,,2 | C,2 D,2 G,,4 |] %8

